build/svg/cmd/sc_datasubtotals.svg

<?xml version="1.0" encoding="UTF-8" standalone="no"?>
<svg
   xmlns:dc="http://purl.org/dc/elements/1.1/"
   xmlns:cc="http://creativecommons.org/ns#"
   xmlns:rdf="http://www.w3.org/1999/02/22-rdf-syntax-ns#"
   xmlns:svg="http://www.w3.org/2000/svg"
   xmlns="http://www.w3.org/2000/svg"
   xmlns:sodipodi="http://sodipodi.sourceforge.net/DTD/sodipodi-0.dtd"
   xmlns:inkscape="http://www.inkscape.org/namespaces/inkscape"
   viewBox="0 0 16 16"
   version="1.1"
   id="svg8"
   sodipodi:docname="sc_datasubtotals.svg"
   inkscape:export-filename="/home/jupiter007/Libreoffice yaru theme fullcolor/build/cmd/sc_datasubtotals.png"
   inkscape:export-xdpi="96"
   inkscape:export-ydpi="96"
   inkscape:version="0.92.5 (2060ec1f9f, 2020-04-08)">
  <metadata
     id="metadata14">
    <rdf:RDF>
      <cc:Work
         rdf:about="">
        <dc:format>image/svg+xml</dc:format>
        <dc:type
           rdf:resource="http://purl.org/dc/dcmitype/StillImage" />
      </cc:Work>
    </rdf:RDF>
  </metadata>
  <defs
     id="defs12" />
  <sodipodi:namedview
     pagecolor="#ffffff"
     bordercolor="#666666"
     borderopacity="1"
     objecttolerance="10"
     gridtolerance="10"
     guidetolerance="10"
     inkscape:pageopacity="0"
     inkscape:pageshadow="2"
     inkscape:window-width="1920"
     inkscape:window-height="1011"
     id="namedview10"
     showgrid="true"
     inkscape:zoom="41.7193"
     inkscape:cx="7.9894557"
     inkscape:cy="9.2025779"
     inkscape:window-x="0"
     inkscape:window-y="32"
     inkscape:window-maximized="1"
     inkscape:current-layer="svg8">
    <inkscape:grid
       type="xygrid"
       id="grid837" />
  </sodipodi:namedview>
  <rect
     style="opacity:1;fill:#ffffff;fill-opacity:1;fill-rule:evenodd;stroke:none;stroke-width:2;stroke-linecap:butt;stroke-linejoin:round;stroke-miterlimit:4;stroke-dasharray:none;stroke-opacity:1"
     id="rect845"
     width="4"
     height="2"
     x="10"
     y="7.0937505"
     ry="0" />
  <rect
     ry="0"
     y="12.093749"
     x="10"
     height="2"
     width="4"
     id="rect849"
     style="opacity:1;fill:#ffffff;fill-opacity:1;fill-rule:evenodd;stroke:none;stroke-width:2;stroke-linecap:butt;stroke-linejoin:round;stroke-miterlimit:4;stroke-dasharray:none;stroke-opacity:1" />
  <path
     style="fill:#c7162b"
     d="m 9,1.0000001 v 4.09375 h 6 v -4.09375 z m 1,1 h 4 v 2 h -4 z"
     id="path827"
     inkscape:connector-curvature="0" />
  <path
     style="fill:#c7162b"
     d="m 9,11.09375 v 4.09375 h 6 v -4.09375 z m 1,1 h 4 v 2 h -4 z"
     id="path823"
     inkscape:connector-curvature="0" />
  <path
     d="M 9,6.0937501 V 10.1875 h 6 V 6.0937501 Z m 1,0.9999996 h 4 v 2 h -4 z"
     id="path4"
     inkscape:connector-curvature="0"
     style="fill:#232629"
     sodipodi:nodetypes="cccccccccc" />
  <rect
     ry="0"
     y="2"
     x="10"
     height="2"
     width="4"
     id="rect841"
     style="opacity:1;fill:#ffffff;fill-opacity:1;fill-rule:evenodd;stroke:none;stroke-width:2;stroke-linecap:butt;stroke-linejoin:round;stroke-miterlimit:4;stroke-dasharray:none;stroke-opacity:1"
     inkscape:export-filename="/home/jupiter007/Libreoffice yaru theme fullcolor/build/cmd/rect841.png"
     inkscape:export-xdpi="96"
     inkscape:export-ydpi="96" />
  <circle
     style="opacity:1;vector-effect:none;fill:#46a926;fill-opacity:1;stroke:none;stroke-width:3.49999976;stroke-linecap:butt;stroke-linejoin:round;stroke-miterlimit:4;stroke-dasharray:none;stroke-dashoffset:0;stroke-opacity:1"
     id="path2644"
     cy="6.499999"
     cx="4.4999981"
     r="3.5" />
  <path
     inkscape:connector-curvature="0"
     id="path1063"
     overflow="visible"
     font-weight="400"
     style="color:#000000;font-weight:400;line-height:normal;font-family:sans-serif;text-indent:0;text-align:start;text-decoration:none;text-decoration-line:none;text-decoration-style:solid;text-decoration-color:#000000;text-transform:none;white-space:normal;overflow:visible;isolation:auto;mix-blend-mode:normal;fill:#ffffff;fill-opacity:1;marker:none"
     d="M 4,4 V 6 H 1.999999 V 7 H 4 V 9 H 5 V 7 H 7 V 6 H 5 V 4 Z" />
  <circle
     r="3.5"
     cx="4.4999981"
     cy="12.5"
     id="circle859"
     style="opacity:1;vector-effect:none;fill:#46a926;fill-opacity:1;stroke:none;stroke-width:3.49999976;stroke-linecap:butt;stroke-linejoin:round;stroke-miterlimit:4;stroke-dasharray:none;stroke-dashoffset:0;stroke-opacity:1" />
  <path
     d="m 4,10 v 2 H 1.999999 v 1 H 4 v 2 H 5 V 13 H 7 V 12 H 5 v -2 z"
     style="color:#000000;font-weight:400;line-height:normal;font-family:sans-serif;text-indent:0;text-align:start;text-decoration:none;text-decoration-line:none;text-decoration-style:solid;text-decoration-color:#000000;text-transform:none;white-space:normal;overflow:visible;isolation:auto;mix-blend-mode:normal;fill:#ffffff;fill-opacity:1;marker:none"
     font-weight="400"
     overflow="visible"
     id="path861"
     inkscape:connector-curvature="0" />
</svg>

<svg xmlns="http://www.w3.org/2000/svg" viewBox="0 0 16 16"><rect width="4" height="2" x="10" y="7.094" ry="0" fill="#fff" fill-rule="evenodd"/><rect ry="0" y="12.094" x="10" height="2" width="4" fill="#fff" fill-rule="evenodd"/><path d="M9 1v4.094h6V1zm1 1h4v2h-4zM9 11.094v4.094h6v-4.094zm1 1h4v2h-4z" fill="#c7162b"/><path d="M9 6.094v4.093h6V6.095zm1 1h4v2h-4z" fill="#232629"/><rect ry="0" y="2" x="10" height="2" width="4" fill="#fff" fill-rule="evenodd"/><circle cy="6.5" cx="4.5" r="3.5" fill="#46a926"/><path overflow="visible" font-weight="400" style="line-height:normal;text-indent:0;text-align:start;text-decoration-line:none;text-decoration-style:solid;text-decoration-color:#000;text-transform:none;white-space:normal;isolation:auto;mix-blend-mode:normal;marker:none" d="M4 4v2H2v1h2v2h1V7h2V6H5V4z" color="#000" font-family="sans-serif" fill="#fff"/><circle r="3.5" cx="4.5" cy="12.5" fill="#46a926"/><path d="M4 10v2H2v1h2v2h1v-2h2v-1H5v-2z" style="line-height:normal;text-indent:0;text-align:start;text-decoration-line:none;text-decoration-style:solid;text-decoration-color:#000;text-transform:none;white-space:normal;isolation:auto;mix-blend-mode:normal;marker:none" font-weight="400" overflow="visible" color="#000" font-family="sans-serif" fill="#fff"/></svg>
